workspaces/osm/styles/symbols/information.12.svg

<svg width="12" height="12" version="1.1" xmlns="http://www.w3.org/2000/svg"><rect id="a" width="12" height="12" fill="none" visibility="hidden"/><path id="b" d="m6 0c-0.93211-0.053261-1.3732 1.3042-0.58779 1.809 0.80268 0.65902 1.983-0.41696 1.4732-1.2737-0.16641-0.32454-0.52076-0.53875-0.88546-0.53528zm1 4c-1 0.33333-2 0.66667-3 1v1h0.92188c0.026042 1.6667 0.052083 3.3333 0.078125 5h-1v1h4v-1h-1v-7z"/></svg>

<?xml version="1.0" encoding="UTF-8" standalone="no"?>
<svg
   xmlns:dc="http://purl.org/dc/elements/1.1/"
   xmlns:cc="http://creativecommons.org/ns#"
   xmlns:rdf="http://www.w3.org/1999/02/22-rdf-syntax-ns#"
   xmlns:svg="http://www.w3.org/2000/svg"
   xmlns="http://www.w3.org/2000/svg"
   id="svg2"
   height="12"
   width="12"
   version="1.1">
  <metadata
     id="metadata8">
    <rdf:RDF>
      <cc:Work
         rdf:about="">
        <dc:format>image/svg+xml</dc:format>
        <dc:type
           rdf:resource="http://purl.org/dc/dcmitype/StillImage" />
        <dc:title></dc:title>
        <cc:license
           rdf:resource="http://creativecommons.org/publicdomain/zero/1.0/" />
      </cc:Work>
      <cc:License
         rdf:about="http://creativecommons.org/publicdomain/zero/1.0/">
        <cc:permits
           rdf:resource="http://creativecommons.org/ns#Reproduction" />
        <cc:permits
           rdf:resource="http://creativecommons.org/ns#Distribution" />
        <cc:permits
           rdf:resource="http://creativecommons.org/ns#DerivativeWorks" />
      </cc:License>
    </rdf:RDF>
  </metadata>
  <defs
     id="defs6" />
  <rect
     style="visibility:hidden;fill:none;stroke:none"
     id="canvas"
     y="0"
     x="0"
     height="12"
     width="12" />
  <path
     id="information"
     d="M 6 0 A 1 1 0 0 0 5 1 A 1 1 0 0 0 6 2 A 1 1 0 0 0 7 1 A 1 1 0 0 0 6 0 z M 7 4 L 4 5 L 4 6 L 4.921875 6 L 5 11 L 4 11 L 4 12 L 8 12 L 8 11 L 7 11 L 7 4 z "
     style="fill:#000000;fill-opacity:1;stroke:none" />
</svg>
